X: 12541
T: Farewell To Liberty
R: jig
M: 6/8
K: Eminor
E/F/|GFG AGA|Bcd e2d|Bcd eBA|GFE DEF|
GFG AGA|Bcd e2d|Bcd eBA|GEE E2:|
e/f/|g2e f2e|dBA B2A|GBd gfe|dBd e2f|
gfe fed|edB cBA|GAB cBA|GEE E2:|

